static/fa/svgs/solid/house-laptop.svg

<svg xmlns="http://www.w3.org/2000/svg" viewBox="0 0 640 512"><!--! Font Awesome Free 6.1.1 by @fontawesome - https://fontawesome.com License - https://fontawesome.com/license/free (Icons: CC BY 4.0, Fonts: SIL OFL 1.1, Code: MIT License) Copyright 2022 Fonticons, Inc.--><path d="M218.3 8.486a31.987 31.987 0 0 1 43.4 0l208 192.014c6.7 6.2 10.3 14.7 10.3 23.5H336c-19.1 0-36.3 8.4-48 21.7V208c0-8.8-7.2-16-16-16h-64c-8.8 0-16 7.2-16 16v64c0 8.8 7.2 16 16 16h63.1v128H112c-26.51 0-48-21.5-48-48V256H32c-13.17 0-25.004-8.1-29.802-20.3C-2.6 223.4.615 209.4 10.3 200.5l208-192.014zM336 256h224c17.7 0 32 14.3 32 32v160h32c8.8 0 16 7.2 16 16 0 26.5-21.5 48-48 48H303.1c-25.6 0-48-21.5-48-48 0-8.8 8.1-16 16-16h32V288c0-17.7 15.2-32 32.9-32zm16 48v144h192V304H352z"/></svg>

<svg xmlns="http://www.w3.org/2000/svg" viewBox="0 0 640 512"><!--! Font Awesome Free 6.1.1 by @fontawesome - https://fontawesome.com License - https://fontawesome.com/license/free (Icons: CC BY 4.0, Fonts: SIL OFL 1.1, Code: MIT License) Copyright 2022 Fonticons, Inc. --><path d="M218.3 8.486C230.6-2.829 249.4-2.829 261.7 8.486L469.7 200.5C476.4 206.7 480 215.2 480 224H336C316.9 224 299.7 232.4 288 245.7V208C288 199.2 280.8 192 272 192H208C199.2 192 192 199.2 192 208V272C192 280.8 199.2 288 208 288H271.1V416H112C85.49 416 64 394.5 64 368V256H32C18.83 256 6.996 247.9 2.198 235.7C-2.6 223.4 .6145 209.4 10.3 200.5L218.3 8.486zM336 256H560C577.7 256 592 270.3 592 288V448H624C632.8 448 640 455.2 640 464C640 490.5 618.5 512 592 512H303.1C277.5 512 255.1 490.5 255.1 464C255.1 455.2 263.2 448 271.1 448H303.1V288C303.1 270.3 318.3 256 336 256zM352 304V448H544V304H352z"/></svg>
